X: 27672
T: Morfa Mawddach
R: jig
M: 6/8
K: Gmajor
d^c=c|B2 d cBA|G2 d B2 d|e2 g c2 e|d3 d2 B|
c2 e Adc|B2 d G2 B|A2 d ^cde|de^c dc=c|
B3 cc/B/A|G2 d BB/c/d|e2 g c2 G|d3 dd/e/f|
gce gdc|Bcd G2 d|A2 d F^EF|G3||
|:GA/B/c|d^cd G2 g|d^cd A2 f|d^cd ge/f/g|d3 d2 B|
cBc Ae^d|d^cd B2 _B|A^ce a^ga|d3:|
|:cBA|GB/c/d gf=f|e2 c B2 _B|A^c/d/e a^ga|f2 d ^c2 =c|
B2 d gdB|c2 e gec|d2 b a^ga|g3:|

